X: 17331
T: Hie Mee Stiagh
R: slide
M: 12/8
K: Gmajor
|:B2c d2G B2c dBG|B2c dBG B3 d2c|
B2c d2G BcB ABc|BAG A2B G3 G3:|
|:g3 G3 BcB A2d|g3 G3 B2c def|
g3 G3 BcB ABc|BAG A2B G3 G3:|

